contributed-vectors/macrodroid_alt_three.svg

<?xml version="1.0" encoding="UTF-8" standalone="no"?>
<svg
   xmlns:dc="http://purl.org/dc/elements/1.1/"
   xmlns:cc="http://creativecommons.org/ns#"
   xmlns:rdf="http://www.w3.org/1999/02/22-rdf-syntax-ns#"
   xmlns:svg="http://www.w3.org/2000/svg"
   xmlns="http://www.w3.org/2000/svg"
   xmlns:sodipodi="http://sodipodi.sourceforge.net/DTD/sodipodi-0.dtd"
   xmlns:inkscape="http://www.inkscape.org/namespaces/inkscape"
   width="192"
   height="192"
   viewBox="0 0 192 192"
   id="svg2"
   version="1.1"
   inkscape:version="1.0.1 (3bc2e813f5, 2020-09-07)"
   sodipodi:docname="macrodroid.svg"
   inkscape:export-filename="/home/jphilippe/inkscape/icônes/delta-github/png/macrodroid.png"
   inkscape:export-xdpi="96"
   inkscape:export-ydpi="96">
  <sodipodi:namedview
     id="base"
     pagecolor="#ffffff"
     bordercolor="#666666"
     borderopacity="1.0"
     inkscape:pageopacity="0.0"
     inkscape:pageshadow="2"
     inkscape:zoom="2.8284272"
     inkscape:cx="45.729614"
     inkscape:cy="41.575193"
     inkscape:document-units="px"
     inkscape:current-layer="layer1"
     showgrid="false"
     units="px"
     inkscape:window-width="1680"
     inkscape:window-height="1022"
     inkscape:window-x="1920"
     inkscape:window-y="30"
     inkscape:window-maximized="1"
     inkscape:document-rotation="0"
     inkscape:snap-global="true"
     inkscape:object-paths="true"
     inkscape:snap-intersection-paths="true"
     inkscape:snap-smooth-nodes="true"
     inkscape:snap-midpoints="true" />
  <defs
     id="defs4">
    <inkscape:path-effect
       effect="fillet_chamfer"
       id="path-effect1076"
       is_visible="true"
       lpeversion="1"
       satellites_param="F,0,1,1,0,0,0,1 @ F,0,1,1,0,0,0,1 @ F,0,0,1,0,0,0,1 @ F,0,0,1,0,0,0,1 @ F,0,0,1,0,0,0,1 @ F,0,1,1,0,0,0,1 @ F,0,1,1,0,0,0,1 @ F,0,0,1,0,0,0,1 @ F,0,0,1,0,0,0,1 @ F,0,0,1,0,0,0,1 @ F,0,0,1,0,0,0,1 @ F,0,0,1,0,0,0,1 @ F,0,0,1,0,0,0,1"
       unit="px"
       method="auto"
       mode="F"
       radius="0"
       chamfer_steps="1"
       flexible="false"
       use_knot_distance="true"
       apply_no_radius="true"
       apply_with_radius="true"
       only_selected="true"
       hide_knots="false" />
    <rect
       x="69.860562"
       y="934.29481"
       width="95.05863"
       height="100.44932"
       id="rect904" />
  </defs>
  <metadata
     id="metadata7">
    <rdf:RDF>
      <cc:Work
         rdf:about="">
        <dc:format>image/svg+xml</dc:format>
        <dc:type
           rdf:resource="http://purl.org/dc/dcmitype/StillImage" />
        <dc:title />
      </cc:Work>
    </rdf:RDF>
  </metadata>
  <g
     inkscape:label="Calque 1"
     inkscape:groupmode="layer"
     id="layer1"
     transform="translate(0,-860.36216)">
    <circle
       style="fill:#55698c;fill-opacity:1;stroke:none;stroke-width:0.25067;stop-color:#000000"
       id="path925"
       cx="96"
       cy="956.36218"
       r="88" />
    <path
       id="rect4182"
       style="fill:#99dc9b;fill-opacity:1;stroke:none;stroke-width:1.72512;stroke-linecap:round;stroke-linejoin:round;stroke-miterlimit:4;stroke-dasharray:none;stroke-opacity:1"
       d="M 82.576172 59.5 C 82.155022 59.504 81.729115 59.670184 81.396484 59.996094 C 80.73123 60.647914 80.698656 61.685759 81.324219 62.324219 L 85.037109 66.113281 C 83.872217 66.953116 82.819315 67.92608 81.894531 69.003906 C 82.961913 72.836441 83.902486 76.765818 84.712891 80.759766 L 114.25 80.759766 L 114.25 80.103516 C 114.25 74.363916 111.38555 69.302091 106.96289 66.113281 L 110.67383 62.324219 C 111.2994 61.685759 111.26877 60.647924 110.60352 59.996094 C 109.93826 59.344274 108.89901 59.334166 108.27344 59.972656 L 103.97266 64.361328 C 101.56364 63.241088 98.866422 62.595703 96 62.595703 C 93.133578 62.595703 90.436364 63.241088 88.027344 64.361328 L 83.726562 59.972656 C 83.413781 59.653426 82.997322 59.49564 82.576172 59.5 z M 81.763672 69.162109 C 81.524054 69.448018 81.293072 69.740726 81.072266 70.041016 C 81.292955 69.740692 81.524238 69.448001 81.763672 69.162109 z M 80.921875 70.246094 C 80.66219 70.61023 80.414537 70.981903 80.183594 71.365234 C 80.414406 70.981952 80.662417 70.610148 80.921875 70.246094 z M 80.085938 71.537109 C 79.886117 71.877536 79.699641 72.225881 79.523438 72.580078 C 79.699504 72.226122 79.886342 71.877304 80.085938 71.537109 z M 79.402344 72.824219 C 79.207415 73.232328 79.023695 73.647777 78.861328 74.072266 C 79.023914 73.647209 79.207161 73.232865 79.402344 72.824219 z M 78.824219 74.175781 C 78.678673 74.563854 78.55077 74.958898 78.433594 75.359375 C 78.550694 74.959444 78.678846 74.563369 78.824219 74.175781 z M 78.34375 75.675781 C 78.226087 76.109263 78.120304 76.547935 78.037109 76.994141 C 78.120392 76.548009 78.226002 76.109246 78.34375 75.675781 z M 78.025391 77.068359 C 77.947039 77.499251 77.88867 77.935496 77.84375 78.376953 C 77.888734 77.93594 77.947005 77.498895 78.025391 77.068359 z M 77.814453 78.691406 C 77.775791 79.15747 77.75 79.627438 77.75 80.103516 C 77.75 79.627179 77.775666 79.157815 77.814453 78.691406 z M 121.88281 83.605469 C 119.31146 83.605469 117.24219 85.592777 117.24219 88.060547 L 117.24219 109.9375 C 117.24219 110.06862 117.2698 110.19214 117.28125 110.32031 L 126.52539 107.58594 L 126.52539 88.060547 C 126.52539 85.592777 124.45415 83.605469 121.88281 83.605469 z M 85.300781 83.804688 C 87.336203 94.831035 88.370449 106.27748 88.371094 117.78516 C 88.371069 118.14632 88.363388 118.50781 88.361328 118.86914 L 92.992188 117.5 L 92.992188 117.16602 L 94.125 117.16602 L 114.25 111.21484 L 114.25 83.804688 L 85.300781 83.804688 z M 117.2832 110.33008 C 117.30911 110.61276 117.35957 110.88565 117.4375 111.15039 C 117.36043 110.88613 117.3091 110.61201 117.2832 110.33008 z M 117.4375 111.15039 C 117.5163 111.41808 117.61734 111.6736 117.74414 111.91797 C 117.61912 111.67413 117.51532 111.41722 117.4375 111.15039 z M 117.74609 111.92383 C 117.87085 112.16344 118.01373 112.39118 118.17969 112.60352 C 118.01526 112.39068 117.86957 112.16382 117.74609 111.92383 z M 118.20703 112.63477 C 118.36707 112.83564 118.53957 113.02362 118.73242 113.19531 C 118.54125 113.02316 118.36551 112.836 118.20703 112.63477 z M 118.83008 113.27344 C 119.00354 113.4196 119.18186 113.55946 119.37695 113.67969 C 119.18276 113.55881 119.0025 113.42033 118.83008 113.27344 z M 119.67969 113.83789 C 119.82798 113.91493 119.97132 113.99713 120.12891 114.05859 C 119.97225 113.99689 119.82697 113.91515 119.67969 113.83789 z M 71.927734 114.04102 C 71.649939 114.15336 71.357355 114.24167 71.054688 114.30078 C 71.358272 114.24146 71.649162 114.1539 71.927734 114.04102 z M 120.5957 114.19727 C 120.72298 114.23245 120.84498 114.27987 120.97656 114.30469 C 120.84469 114.27967 120.72312 114.23276 120.5957 114.19727 z "
       transform="translate(0,860.36216)" />
    <circle
       style="fill:#55698c;fill-opacity:1;stroke:none;stroke-width:0.0794772;stop-color:#000000"
       id="path892"
       cx="88.428635"
       cy="933.37946"
       r="1.4574726" />
    <circle
       style="fill:#55698c;fill-opacity:1;stroke:none;stroke-width:0.0794772;stop-color:#000000"
       id="circle894"
       cx="103.57106"
       cy="933.37946"
       r="1.4574726" />
    <path
       id="rect1015"
       style="opacity:1;fill:#9abefe;fill-opacity:1;stroke:none;stroke-width:0.171201;stop-color:#000000"
       d="M 126.52539 107.58594 L 117.28125 110.32031 C 117.48575 112.60413 119.44838 114.39062 121.88281 114.39062 C 124.45415 114.39062 126.52539 112.40527 126.52539 109.9375 L 126.52539 107.58594 z M 114.25 111.21484 L 94.125 117.16602 L 99.007812 117.16602 L 99.007812 128.04492 C 99.007813 130.5127 101.07709 132.5 103.64844 132.5 C 106.21978 132.5 108.29102 130.5127 108.29102 128.04492 L 108.29102 117.16602 L 111.26758 117.16602 C 112.91956 117.16602 114.25 115.94905 114.25 114.4375 L 114.25 111.21484 z M 92.992188 117.5 L 83.708984 120.24609 L 83.708984 128.04492 C 83.708984 130.5127 85.780218 132.5 88.351562 132.5 C 90.922908 132.5 92.992188 130.5127 92.992188 128.04492 L 92.992188 117.5 z "
       transform="translate(0,860.36216)" />
    <path
       id="path941"
       style="fill:#ff847f;fill-opacity:1;stroke:none;stroke-width:0.171201;stop-color:#000000"
       d="M 81.892577,68.998458 C 79.30711,72.012739 77.75,75.876342 77.75,80.103516 v 0.65625 h 6.962891 c -0.810822,-3.996003 -1.752253,-7.9269 -2.820314,-11.761308 z M 70.117188,83.605469 c -2.571346,0 -4.642579,1.987308 -4.642579,4.455078 V 109.9375 c 0,2.46777 2.071234,4.45312 4.642579,4.45312 2.571345,0 4.640624,-1.98535 4.640624,-4.45312 V 88.060547 c 0,-2.46777 -2.06928,-4.455078 -4.640624,-4.455078 z M 77.75,83.804688 V 114.4375 c 0,1.51155 1.330444,2.72852 2.982422,2.72852 h 2.976562 v 10.8789 c 0,2.28947 1.767844,4.16386 4.09961,4.42529 0.374299,-4.86391 0.562158,-9.78358 0.5625,-14.68505 -6.45e-4,-11.50768 -1.034891,-22.954125 -3.070313,-33.980472 z"
       sodipodi:nodetypes="cscccssssssscsscscccc"
       transform="translate(0,860.36216)" />
    <path
       d="m 85.349911,971.87354 v -22.05229 h 6.663825 l 4.001304,15.04249 3.956175,-15.04249 h 6.678865 v 22.05229 h -4.13668 v -17.35903 l -4.377369,17.35903 h -4.28711 l -4.362324,-17.35903 v 17.35903 z"
       id="path922"
       style="font-weight:bold;font-size:40px;line-height:1.25;font-family:Arial;-inkscape-font-specification:'Arial Bold';letter-spacing:0px;word-spacing:0px;white-space:pre;fill:#55698c;fill-opacity:1;stroke-width:0.770176"
       inkscape:path-effect="#path-effect1076"
       inkscape:original-d="m 85.349911,971.87354 v -22.05229 h 6.663825 l 4.001304,15.04249 3.956175,-15.04249 h 6.678865 v 22.05229 h -4.13668 v -17.35903 l -4.377369,17.35903 h -4.28711 l -4.362324,-17.35903 v 17.35903 z" />
  </g>
</svg>

<svg width="192" height="192" xmlns="http://www.w3.org/2000/svg"><g transform="matrix(2.15845 0 0 2.15845 -111.211 -1968.258)"><path style="fill:#99dc9b;fill-opacity:1;stroke:none;stroke-width:1.72512;stroke-linecap:round;stroke-linejoin:round;stroke-miterlimit:4;stroke-dasharray:none;stroke-opacity:1" d="M82.576 59.5a1.71 1.71 0 0 0-1.18.496c-.665.652-.697 1.69-.072 2.328l3.713 3.79a18.058 18.058 0 0 0-3.142 2.89 169.474 169.474 0 0 1 2.818 11.756h29.537v-.656c0-5.74-2.864-10.802-7.287-13.99l3.71-3.79c.626-.638.596-1.676-.07-2.328-.665-.652-1.704-.662-2.33-.023l-4.3 4.388A18.854 18.854 0 0 0 96 62.596c-2.866 0-5.564.645-7.973 1.765l-4.3-4.388a1.578 1.578 0 0 0-1.15-.473zm-.812 9.662zm-.842 1.084zm-.836 1.291zm-.684 1.287zm-.578 1.352zm-.48 1.5zm-.319 1.392zm-.21 1.623zm44.068 4.914c-2.572 0-4.64 1.988-4.64 4.456v21.876c0 .132.027.255.038.383l9.244-2.734V88.06c0-2.468-2.07-4.456-4.642-4.456zm-36.582.2c2.035 11.026 3.07 22.472 3.07 33.98 0 .361-.008.723-.01 1.084l4.631-1.369v-.334h1.133l20.125-5.951v-27.41zm31.982 26.525zm.154.82zm.31.774zm.46.71zm.623.64zm.85.564c.148.077.291.16.449.22-.157-.061-.302-.143-.45-.22zm-47.752.203zm48.668.156c.127.035.249.083.38.108-.131-.025-.253-.072-.38-.108z" transform="translate(0 860.362)"/><circle style="fill:#55698c;fill-opacity:1;stroke:none;stroke-width:.0794772;stop-color:#000" cx="88.429" cy="933.379" r="1.457"/><circle style="fill:#55698c;fill-opacity:1;stroke:none;stroke-width:.0794772;stop-color:#000" cx="103.571" cy="933.379" r="1.457"/><path style="opacity:1;fill:#9abefe;fill-opacity:1;stroke:none;stroke-width:.171201;stop-color:#000" d="m126.525 107.586-9.244 2.734c.205 2.284 2.167 4.07 4.602 4.07 2.571 0 4.642-1.985 4.642-4.453zm-12.275 3.629-20.125 5.951h4.883v10.879c0 2.468 2.07 4.455 4.64 4.455 2.572 0 4.643-1.987 4.643-4.455v-10.879h2.977c1.652 0 2.982-1.217 2.982-2.729zM92.992 117.5l-9.283 2.746v7.799c0 2.468 2.071 4.455 4.643 4.455 2.57 0 4.64-1.987 4.64-4.455z" transform="translate(0 860.362)"/><path style="fill:#ff847f;fill-opacity:1;stroke:none;stroke-width:.171201;stop-color:#000" d="M81.893 68.998c-2.586 3.015-4.143 6.878-4.143 11.106v.656h6.963a169.457 169.457 0 0 0-2.82-11.762zM70.117 83.605c-2.571 0-4.642 1.988-4.642 4.456v21.876c0 2.468 2.07 4.454 4.642 4.454 2.572 0 4.64-1.986 4.64-4.454V88.061c0-2.468-2.068-4.456-4.64-4.456zm7.633.2v30.632c0 1.512 1.33 2.729 2.982 2.729h2.977v10.879c0 2.29 1.768 4.164 4.1 4.425.374-4.864.562-9.783.562-14.685 0-11.508-1.035-22.954-3.07-33.98z" transform="translate(0 860.362)"/><path d="M85.35 971.874V949.82h6.664l4.001 15.043 3.956-15.043h6.68v22.053h-4.138v-17.36l-4.377 17.36h-4.287l-4.362-17.36v17.36z" style="font-weight:700;font-size:40px;line-height:1.25;font-family:Arial;-inkscape-font-specification:'Arial Bold';letter-spacing:0;word-spacing:0;white-space:pre;fill:#55698c;fill-opacity:1;stroke-width:.770176"/></g></svg>
